assets/images/index/scheme.svg

<svg width="722" height="566" viewBox="0 0 722 566" fill="none" xmlns="http://www.w3.org/2000/svg">
<line x1="45.2189" y1="14.5504" x2="349.219" y2="162.55" stroke="white" stroke-dasharray="4 4"/>
<line x1="269.218" y1="419.55" x2="537.218" y2="549.55" stroke="white" stroke-dasharray="4 4"/>
<line x1="26.2199" y1="351.551" x2="222.22" y2="447.551" stroke="white" stroke-dasharray="4 4"/>
<line x1="25.7475" y1="351.568" x2="348.747" y2="162.568" stroke="white" stroke-dasharray="4 4"/>
<line x1="221.748" y1="447.568" x2="269.748" y2="419.568" stroke="white" stroke-dasharray="4 4"/>
<line x1="537.744" y1="549.571" x2="661.744" y2="475.571" stroke="white" stroke-dasharray="4 4"/>
<line x1="661.5" y1="476" x2="661.5" y2="173" stroke="white" stroke-dasharray="4 4"/>
<path d="M259.244 119.656C252.02 123.827 240.306 123.827 233.081 119.656C225.857 115.485 225.857 108.723 233.081 104.552C240.306 100.381 252.02 100.381 259.244 104.552C266.469 108.723 266.469 115.485 259.244 119.656Z" fill="white" fill-opacity="0.1"/>
<path d="M255.709 117.615C250.437 120.658 241.889 120.658 236.617 117.615C231.345 114.571 231.345 109.637 236.617 106.593C241.889 103.55 250.437 103.55 255.709 106.593C260.981 109.637 260.981 114.571 255.709 117.615Z" fill="white" fill-opacity="0.18"/>
<path d="M250.052 114.349C247.904 115.589 244.422 115.589 242.274 114.349C240.126 113.109 240.126 111.099 242.274 109.859C244.422 108.619 247.904 108.619 250.052 109.859C252.2 111.099 252.2 113.109 250.052 114.349Z" fill="white"/>
<path d="M58.2444 22.6558C51.0197 26.8266 39.3062 26.8266 32.0815 22.6558C24.8568 18.485 24.8568 11.7228 32.0815 7.55194C39.3062 3.38112 51.0197 3.38112 58.2444 7.55194C65.4691 11.7228 65.4691 18.485 58.2444 22.6558Z" fill="white" fill-opacity="0.1"/>
<path d="M54.7089 20.6149C49.4368 23.6584 40.8891 23.6584 35.617 20.6149C30.3449 17.5713 30.3449 12.6367 35.617 9.59313C40.8891 6.54956 49.4368 6.54956 54.7089 9.59313C59.981 12.6367 59.981 17.5713 54.7089 20.6149Z" fill="white" fill-opacity="0.18"/>
<path d="M49.0521 17.349C46.9042 18.589 43.4218 18.589 41.2739 17.349C39.126 16.1091 39.126 14.0987 41.2739 12.8587C43.4218 11.6187 46.9042 11.6187 49.0521 12.8587C51.1999 14.0987 51.1999 16.1091 49.0521 17.349Z" fill="white"/>
<path d="M280.244 427.656C273.02 431.827 261.306 431.827 254.081 427.656C246.857 423.485 246.857 416.723 254.081 412.552C261.306 408.381 273.02 408.381 280.244 412.552C287.469 416.723 287.469 423.485 280.244 427.656Z" fill="white" fill-opacity="0.1"/>
<path d="M276.709 425.615C271.437 428.658 262.889 428.658 257.617 425.615C252.345 422.571 252.345 417.637 257.617 414.593C262.889 411.55 271.437 411.55 276.709 414.593C281.981 417.637 281.981 422.571 276.709 425.615Z" fill="white" fill-opacity="0.18"/>
<path d="M271.052 422.349C268.904 423.589 265.422 423.589 263.274 422.349C261.126 421.109 261.126 419.099 263.274 417.859C265.422 416.619 268.904 416.619 271.052 417.859C273.2 419.099 273.2 421.109 271.052 422.349Z" fill="white"/>
<path d="M39.2444 358.656C32.0197 362.827 20.3062 362.827 13.0815 358.656C5.85679 354.485 5.85679 347.723 13.0815 343.552C20.3062 339.381 32.0197 339.381 39.2444 343.552C46.4691 347.723 46.4691 354.485 39.2444 358.656Z" fill="white" fill-opacity="0.1"/>
<path d="M35.7089 356.615C30.4368 359.658 21.8891 359.658 16.617 356.615C11.3449 353.571 11.3449 348.637 16.617 345.593C21.8891 342.55 30.4368 342.55 35.7089 345.593C40.981 348.637 40.981 353.571 35.7089 356.615Z" fill="white" fill-opacity="0.18"/>
<path d="M30.0521 353.349C27.9042 354.589 24.4218 354.589 22.2739 353.349C20.126 352.109 20.126 350.099 22.2739 348.859C24.4218 347.619 27.9042 347.619 30.0521 348.859C32.1999 350.099 32.1999 352.109 30.0521 353.349Z" fill="white"/>
<path d="M550.244 557.656C543.02 561.827 531.306 561.827 524.081 557.656C516.857 553.485 516.857 546.723 524.081 542.552C531.306 538.381 543.02 538.381 550.244 542.552C557.469 546.723 557.469 553.485 550.244 557.656Z" fill="white" fill-opacity="0.1"/>
<path d="M546.709 555.615C541.437 558.658 532.889 558.658 527.617 555.615C522.345 552.571 522.345 547.637 527.617 544.593C532.889 541.55 541.437 541.55 546.709 544.593C551.981 547.637 551.981 552.571 546.709 555.615Z" fill="white" fill-opacity="0.18"/>
<path d="M541.052 552.349C538.904 553.589 535.422 553.589 533.274 552.349C531.126 551.109 531.126 549.099 533.274 547.859C535.422 546.619 538.904 546.619 541.052 547.859C543.2 549.099 543.2 551.109 541.052 552.349Z" fill="white"/>
<path d="M721.354 173.354C721.549 173.158 721.549 172.842 721.354 172.646L718.172 169.464C717.976 169.269 717.66 169.269 717.464 169.464C717.269 169.66 717.269 169.976 717.464 170.172L720.293 173L717.464 175.828C717.269 176.024 717.269 176.34 717.464 176.536C717.66 176.731 717.976 176.731 718.172 176.536L721.354 173.354ZM661 173.5L662.875 173.5L662.875 172.5L661 172.5L661 173.5ZM666.625 173.5L670.375 173.5L670.375 172.5L666.625 172.5L666.625 173.5ZM674.125 173.5L677.875 173.5L677.875 172.5L674.125 172.5L674.125 173.5ZM681.625 173.5L685.375 173.5L685.375 172.5L681.625 172.5L681.625 173.5ZM689.125 173.5L692.875 173.5L692.875 172.5L689.125 172.5L689.125 173.5ZM696.625 173.5L700.375 173.5L700.375 172.5L696.625 172.5L696.625 173.5ZM704.125 173.5L707.875 173.5L707.875 172.5L704.125 172.5L704.125 173.5ZM711.625 173.5L715.375 173.5L715.375 172.5L711.625 172.5L711.625 173.5ZM719.125 173.5L721 173.5L721 172.5L719.125 172.5L719.125 173.5Z" fill="white"/>
</svg>

<svg width="722" height="566" fill="none" xmlns="http://www.w3.org/2000/svg"><path stroke="#fff" stroke-dasharray="4 4" d="M45.219 14.55l304 148m-80.001 257l268 130M26.22 351.551l196 96M25.747 351.568l323-189m-126.999 285l48-28m267.996 130.003l124-74m-.244.429V173"/><path d="M259.244 119.656c-7.224 4.171-18.938 4.171-26.163 0-7.224-4.171-7.224-10.933 0-15.104 7.225-4.171 18.939-4.171 26.163 0 7.225 4.171 7.225 10.933 0 15.104z" fill="#fff" fill-opacity=".1"/><path d="M255.709 117.615c-5.272 3.043-13.82 3.043-19.092 0-5.272-3.044-5.272-7.978 0-11.022 5.272-3.043 13.82-3.043 19.092 0 5.272 3.044 5.272 7.978 0 11.022z" fill="#fff" fill-opacity=".18"/><path d="M250.052 114.349c-2.148 1.24-5.63 1.24-7.778 0-2.148-1.24-2.148-3.25 0-4.49 2.148-1.24 5.63-1.24 7.778 0 2.148 1.24 2.148 3.25 0 4.49z" fill="#fff"/><path d="M58.244 22.656c-7.224 4.17-18.938 4.17-26.163 0-7.224-4.171-7.224-10.933 0-15.104 7.225-4.17 18.939-4.17 26.163 0 7.225 4.17 7.225 10.933 0 15.104z" fill="#fff" fill-opacity=".1"/><path d="M54.709 20.615c-5.272 3.043-13.82 3.043-19.092 0-5.272-3.044-5.272-7.978 0-11.022 5.272-3.043 13.82-3.043 19.092 0 5.272 3.044 5.272 7.978 0 11.022z" fill="#fff" fill-opacity=".18"/><path d="M49.052 17.349c-2.148 1.24-5.63 1.24-7.778 0-2.148-1.24-2.148-3.25 0-4.49 2.148-1.24 5.63-1.24 7.778 0 2.148 1.24 2.148 3.25 0 4.49z" fill="#fff"/><path d="M280.244 427.656c-7.224 4.171-18.938 4.171-26.163 0-7.224-4.171-7.224-10.933 0-15.104 7.225-4.171 18.939-4.171 26.163 0 7.225 4.171 7.225 10.933 0 15.104z" fill="#fff" fill-opacity=".1"/><path d="M276.709 425.615c-5.272 3.043-13.82 3.043-19.092 0-5.272-3.044-5.272-7.978 0-11.022 5.272-3.043 13.82-3.043 19.092 0 5.272 3.044 5.272 7.978 0 11.022z" fill="#fff" fill-opacity=".18"/><path d="M271.052 422.349c-2.148 1.24-5.63 1.24-7.778 0-2.148-1.24-2.148-3.25 0-4.49 2.148-1.24 5.63-1.24 7.778 0 2.148 1.24 2.148 3.25 0 4.49z" fill="#fff"/><path d="M39.244 358.656c-7.224 4.171-18.938 4.171-26.163 0-7.224-4.171-7.224-10.933 0-15.104 7.225-4.171 18.939-4.171 26.163 0 7.225 4.171 7.225 10.933 0 15.104z" fill="#fff" fill-opacity=".1"/><path d="M35.709 356.615c-5.272 3.043-13.82 3.043-19.092 0-5.272-3.044-5.272-7.978 0-11.022 5.272-3.043 13.82-3.043 19.092 0 5.272 3.044 5.272 7.978 0 11.022z" fill="#fff" fill-opacity=".18"/><path d="M30.052 353.349c-2.148 1.24-5.63 1.24-7.778 0-2.148-1.24-2.148-3.25 0-4.49 2.148-1.24 5.63-1.24 7.778 0 2.148 1.24 2.148 3.25 0 4.49z" fill="#fff"/><path d="M550.244 557.656c-7.224 4.171-18.938 4.171-26.163 0-7.224-4.171-7.224-10.933 0-15.104 7.225-4.171 18.939-4.171 26.163 0 7.225 4.171 7.225 10.933 0 15.104z" fill="#fff" fill-opacity=".1"/><path d="M546.709 555.615c-5.272 3.043-13.82 3.043-19.092 0-5.272-3.044-5.272-7.978 0-11.022 5.272-3.043 13.82-3.043 19.092 0 5.272 3.044 5.272 7.978 0 11.022z" fill="#fff" fill-opacity=".18"/><path d="M541.052 552.349c-2.148 1.24-5.63 1.24-7.778 0-2.148-1.24-2.148-3.25 0-4.49 2.148-1.24 5.63-1.24 7.778 0 2.148 1.24 2.148 3.25 0 4.49zm180.302-378.995a.502.502 0 000-.708l-3.182-3.182a.502.502 0 00-.708.708l2.829 2.828-2.829 2.828a.502.502 0 00.708.708l3.182-3.182zM661 173.5h1.875v-1H661v1zm5.625 0h3.75v-1h-3.75v1zm7.5 0h3.75v-1h-3.75v1zm7.5 0h3.75v-1h-3.75v1zm7.5 0h3.75v-1h-3.75v1zm7.5 0h3.75v-1h-3.75v1zm7.5 0h3.75v-1h-3.75v1zm7.5 0h3.75v-1h-3.75v1zm7.5 0H721v-1h-1.875v1z" fill="#fff"/></svg>
